X:87
T:Poll Booth. THO5.087
M:6/8
L:1/8
N:Removed dot from final note to correct timing issue
B:Thompson's Complete Collection of 200 Favourite Dances Vol.5
F:https://www.libraryofdance.org/manuals/1780c-Thompson-Compleat-5.pdf
Z:vmp. Peter Dunk 2024
Q:3/8=100
K:A
e|e2a ecA|B2B B2d|cde fed|cBA GFE|
e2a ecA|B2B B2d|cde fed|cdB A2:|
|:E|EAc FBd|GBe Aca|fed cBA|GBA GFE|
EAc FBd|GBe Aca|fed cdB|A3 "^NB"A,2:|
W:
W:The first and 2nd Couples foot it and change sides ./.
W:the same back again ./:
W:Cast off and turn :/.
W:Hands round six :/:

